dist/svg/help-o.svg

<!-- Generated by Trend Micro Style Portal -->
<svg version="1.1" xmlns="http://www.w3.org/2000/svg" width="16" height="16" viewBox="0 0 16 16">
  <title>help-o</title>
  <path fill="rgb(34,34,34)" d="M8 1.5c3.59 0 6.5 2.91 6.5 6.5s-2.91 6.5-6.5 6.5c-3.59 0-6.5-2.91-6.5-6.5v0c0.006-3.588 2.912-6.494 6.499-6.5h0.001zM8 0c-4.418 0-8 3.582-8 8s3.582 8 8 8c4.418 0 8-3.582 8-8v0c0-4.418-3.582-8-8-8v0zM9 11h-2v2h2zM11.1 5.55c-0.005-0.72-0.328-1.364-0.837-1.797l-0.003-0.003c-0.563-0.469-1.295-0.754-2.093-0.754-0.059 0-0.117 0.002-0.175 0.005l0.008-0c-0.045-0.002-0.098-0.004-0.152-0.004-0.774 0-1.483 0.277-2.033 0.738l0.005-0.004c-0.498 0.456-0.811 1.105-0.82 1.828l-0 0.002h1.51c0.11-0.49 0.11-1.3 1.56-1.3s1.42 0.84 1.42 1.16c0 0.004 0 0.009 0 0.014 0 0.238-0.083 0.456-0.222 0.628l0.001-0.002c-0.381 0.406-0.779 0.782-1.199 1.133l-0.021 0.017s-1.050 0.94-1.050 1.79v1h2v-1c0-0.92 1.090-1.81 1.6-2.28 0.306-0.297 0.496-0.711 0.5-1.169v-0.001z"></path>
</svg>

<svg width="16" height="16" viewBox="0 0 16 16" fill="rgb(34, 34, 34)" xmlns="http://www.w3.org/2000/svg"><title>help-o</title><path d="M8 1.5C11.59 1.5 14.5 4.41 14.5 8C14.5 11.59 11.59 14.5 8 14.5C4.41 14.5 1.5 11.59 1.5 8C1.506 4.412 4.413 1.506 8 1.5ZM8 0C3.582 0 0 3.582 0 8C0 12.418 3.582 16 8 16C12.418 16 16 12.418 16 8C16 3.582 12.418 0 8 0ZM9 11H7V13H9V11ZM11.1 5.55C11.095 4.83 10.772 4.186 10.263 3.753L10.26 3.75C9.697 3.281 8.965 2.996 8.167 2.996C8.108 2.996 8.05 2.998 7.992 3.001H8C7.955 2.999 7.902 2.997 7.848 2.997C7.074 2.997 6.365 3.274 5.815 3.735L5.82 3.731C5.322 4.187 5.009 4.836 5 5.559V5.561H6.51C6.62 5.071 6.62 4.261 8.07 4.261C9.52 4.261 9.49 5.101 9.49 5.421C9.49 5.425 9.49 5.43 9.49 5.435C9.49 5.673 9.407 5.891 9.268 6.063L9.269 6.061C8.888 6.467 8.49 6.843 8.07 7.194L8.049 7.211C8.049 7.211 6.999 8.151 6.999 9.001V10.001H8.999V9.001C8.999 8.081 10.089 7.191 10.599 6.721C10.905 6.424 11.095 6.01 11.099 5.552L11.1 5.55Z" fill="rgb(34, 34, 34)" fill-opacity="1.00"/></svg>
